icon/bts/sign-in.svg

<svg xmlns="http://www.w3.org/2000/svg" width="32" height="32" fill="none" stroke="currentcolor" stroke-linecap="round" stroke-linejoin="round" stroke-width="2"><path d="M3 16h20m-8-8 8 8-8 8m6-20h8v24h-8"/></svg>

<svg id="i-signin" xmlns="http://www.w3.org/2000/svg" viewBox="0 0 32 32" fill="none" stroke="currentcolor" stroke-linecap="round" stroke-linejoin="round" stroke-width="2" height="1em" width="1em">
  <path d="M3 16 L23 16 M15 8 L23 16 15 24 M21 4 L29 4 29 28 21 28"/>
</svg>
